X: 11604
T: Egg, The
R: jig
M: 6/8
K: Adorian
B|:AGE EDE|G2A c2d|~e3 ~e2d|cAd cAG|
AGE EDE|~G2A c2d|ege e2d|1 cAG A2B:|2 cAG Acd||
|:egg agg|egg d2g|egg agg|ege dcA|
AGE EDE|~G2A c2d|ege e2d|1 cAG Acd:|2 cAG A2B||

